svg/Pictogram/pictograms-aem-0075r-wear_dust_mask.svg

<?xml version="1.0" encoding="UTF-8" standalone="no"?>
<svg height="304" id="svg2" inkscape:output_extension="org.inkscape.output.svg.inkscape" inkscape:version="0.46" sodipodi:docname="pictograms-aem-0075r-wear_dust_mask-2.svg" sodipodi:version="0.32" version="1.0" width="304" xmlns="http://www.w3.org/2000/svg" xmlns:cc="http://creativecommons.org/ns#" xmlns:dc="http://purl.org/dc/elements/1.1/" xmlns:inkscape="http://www.inkscape.org/namespaces/inkscape" xmlns:rdf="http://www.w3.org/1999/02/22-rdf-syntax-ns#" xmlns:sodipodi="http://sodipodi.sourceforge.net/DTD/sodipodi-0.dtd" xmlns:svg="http://www.w3.org/2000/svg">
  <metadata>
    <rdf:RDF xmlns:cc="http://web.resource.org/cc/" xmlns:dc="http://purl.org/dc/elements/1.1/" xmlns:rdf="http://www.w3.org/1999/02/22-rdf-syntax-ns#">
      <cc:Work rdf:about="">
        <dc:title></dc:title>
        <dc:description></dc:description>
        <dc:subject>
          <rdf:Bag>
            <rdf:li></rdf:li>
          </rdf:Bag>
        </dc:subject>
        <dc:publisher>
          <cc:Agent rdf:about="http://www.unece.org/trans/danger/publi/ghs/pictograms.html">
            <dc:title>Source: UNECE GHS of Classification and Labeling of Chemicals, Source: AEM Pictorial Database, Source: AEM Pictorial Database, Source: AEM Pictorial Database, Source: AEM Pictorial Database</dc:title>
          </cc:Agent>
        </dc:publisher>
        <dc:creator>
          <cc:Agent>
            <dc:title></dc:title>
          </cc:Agent>
        </dc:creator>
        <dc:rights>
          <cc:Agent>
            <dc:title></dc:title>
          </cc:Agent>
        </dc:rights>
        <dc:date></dc:date>
        <dc:format>image/svg+xml</dc:format>
        <dc:type rdf:resource="http://purl.org/dc/dcmitype/StillImage"/>
        <cc:license rdf:resource="http://en.wikipedia.org/wiki/Public_domain"/>
        <dc:language>en</dc:language>
      </cc:Work>
    </rdf:RDF>
  </metadata>
  <sodipodi:namedview bordercolor="#666666" borderopacity="1.0" gridtolerance="10.0" guidetolerance="10.0" id="base" inkscape:current-layer="svg2" inkscape:cx="161.269" inkscape:cy="152.007" inkscape:pageopacity="0.0" inkscape:pageshadow="2" inkscape:window-height="674" inkscape:window-width="640" inkscape:window-x="247" inkscape:window-y="205" inkscape:zoom="1.5262455" objecttolerance="10.0" pagecolor="#ffffff" showgrid="false"/>
  <defs id="defs6">
    <inkscape:perspective id="perspective38" inkscape:persp3d-origin="161.269 : 101.338 : 1" inkscape:vp_x="0 : 152.007 : 1" inkscape:vp_y="0 : 1000 : 0" inkscape:vp_z="322.53799 : 152.007 : 1" sodipodi:type="inkscape:persp3d"/>
    <marker id="ArrowEnd" markerHeight="3" markerUnits="strokeWidth" markerWidth="4" orient="auto" refX="0" refY="5" viewBox="0 0 10 10">
      <path d="M 0,0 L 10,5 L 0,10 L 0,0 z" id="path9"/>
    </marker>
    <marker id="ArrowStart" markerHeight="3" markerUnits="strokeWidth" markerWidth="4" orient="auto" refX="10" refY="5" viewBox="0 0 10 10">
      <path d="M 10,0 L 0,5 L 10,10 L 10,0 z" id="path12"/>
    </marker>
  </defs>
  <g id="g2958" transform="matrix(1.3532768,0,0,1.3532781,-53.207834,-52.192858)">
    <path d="M 322.538,247.186 C 322.538,249.698 320.503,251.729 317.991,251.729 C 315.483,251.729 313.448,249.698 313.448,247.186 C 313.448,244.679 315.483,242.643 317.991,242.643 C 320.503,242.643 322.538,244.679 322.538,247.186" id="path15" style="fill:#ffffff;fill-rule:evenodd;stroke:none"/>
    <path d="M 77.1907,218.729 L 93.2298,212.288 L 90.5462,205.604 L 71.3509,213.315 C 70.8626,212.757 70.386,212.19 69.9251,211.604 C 68.0892,209.265 66.5501,206.753 65.3079,204.128 L 87.8977,194.998 L 85.2024,188.323 L 62.847,197.354 C 62.0266,194.194 61.6048,190.928 61.6048,187.616 C 61.6048,187.209 61.6282,186.799 61.6438,186.389 L 82.1712,177.995 L 79.4446,171.331 L 62.8899,178.1 C 65.9485,167.795 74.2415,160.12 80.3313,155.651 C 84.1009,157.866 118.19,177.897 123.749,181.163 C 120.585,186.846 100.538,222.858 98.5892,226.362 C 97.6438,226.362 96.6907,226.343 95.929,226.249 C 89.0149,225.413 82.6048,222.808 77.1907,218.725 L 77.1907,218.729 z M 104.479,234.104 C 109.14,239.167 115.827,242.339 123.253,242.339 L 150.749,242.28 C 206.612,238.237 243.061,193.698 243.061,137.682 C 243.061,135.291 242.897,132.928 242.632,130.487 C 242.628,130.487 134.827,178.311 134.827,178.311 L 121.827,170.686 C 121.827,170.686 240.257,118.502 240.378,118.385 C 233.722,92.9094 218.393,59.4054 165.651,59.4054 C 112.909,59.4054 165.64,59.4054 165.64,59.4054 C 141.124,61.0304 115.429,75.8624 101.574,100.655 C 96.304,110.084 85.8274,149.045 85.8274,149.045 L 79.9798,146.166 L 77.8899,147.581 C 69.8392,153.034 56.0227,164.745 53.9524,181.905 C 52.4446,194.366 55.886,206.667 63.6321,216.542 C 71.3821,226.421 82.511,232.686 94.972,234.19 C 96.554,234.382 102.956,234.116 104.479,234.104" id="path17" style="fill:#000000;fill-rule:evenodd;stroke:none"/>
    <path d="M 125.686,125.487 C 121.897,125.487 118.827,128.557 118.827,132.346 C 118.827,136.135 121.897,139.205 125.686,139.205 C 129.475,139.205 132.55,136.135 132.55,132.346 C 132.55,128.557 129.475,125.487 125.686,125.487" id="path19" style="fill:#ffffff;fill-rule:evenodd;stroke:none"/>
    <path d="M 29.6204,265.393 L 2.62042,265.393" id="path21" style="fill:none;stroke:#000000;stroke-width:0.5"/>
    <path d="M 38.6204,274.393 L 38.6204,301.393" id="path23" style="fill:none;stroke:#000000;stroke-width:0.5"/>
    <path d="M 29.6204,38.6204 L 2.62042,38.6204" id="path25" style="fill:none;stroke:#000000;stroke-width:0.5"/>
    <path d="M 38.6204,29.6204 L 38.6204,2.62042" id="path27" style="fill:none;stroke:#000000;stroke-width:0.5"/>
    <path d="M 274.39,38.6204 L 301.39,38.6204" id="path29" style="fill:none;stroke:#000000;stroke-width:0.5"/>
    <path d="M 265.39,29.6204 L 265.39,2.62042" id="path31" style="fill:none;stroke:#000000;stroke-width:0.5"/>
    <path d="M 274.39,265.393 L 301.39,265.393" id="path33" style="fill:none;stroke:#000000;stroke-width:0.5"/>
    <path d="M 265.39,274.393 L 265.39,301.393" id="path35" style="fill:none;stroke:#000000;stroke-width:0.5"/>
  </g>
</svg>

<svg xmlns="http://www.w3.org/2000/svg" viewBox="0 0 304 304"><g transform="matrix(1.35328 0 0 1.35328-53.21-52.19)" fill-rule="evenodd"><path d="m77.19 218.73l16.04-6.441-2.684-6.684-19.2 7.711c-.488-.558-.965-1.125-1.426-1.711-1.836-2.339-3.375-4.851-4.617-7.476l22.59-9.13-2.695-6.675-22.355 9.03c-.82-3.16-1.242-6.426-1.242-9.738 0-.407.023-.817.039-1.227l20.527-8.394-2.727-6.664-16.555 6.769c3.059-10.305 11.352-17.98 17.441-22.449 3.77 2.215 37.859 22.246 43.42 25.512-3.164 5.683-23.21 41.695-25.16 45.2-.945 0-1.898-.019-2.66-.113-6.914-.836-13.324-3.441-18.738-7.524v.004m27.29 15.375c4.661 5.063 11.348 8.235 18.774 8.235l27.496-.059c55.863-4.04 92.31-48.582 92.31-104.6 0-2.391-.164-4.754-.429-7.195-.004 0-107.81 47.824-107.81 47.824l-13-7.625c0 0 118.43-52.18 118.55-52.3-6.656-25.476-21.985-58.98-74.73-58.98-52.742 0-.011 0-.011 0-24.516 1.625-50.21 16.457-64.07 41.25-5.27 9.429-15.747 48.39-15.747 48.39l-5.848-2.879-2.09 1.415c-8.05 5.453-21.867 17.16-23.938 34.32-1.508 12.461 1.934 24.762 9.68 34.637 7.75 9.879 18.879 16.14 31.34 17.648 1.582.192 7.984-.074 9.507-.086"/><path d="m125.69 125.49c-3.789 0-6.859 3.07-6.859 6.859 0 3.789 3.07 6.859 6.859 6.859 3.789 0 6.864-3.07 6.864-6.859 0-3.789-3.075-6.859-6.864-6.859" fill="#fff"/></g></svg>
